src/shared/assets/image/calendar/6-june.svg

<svg width="24" height="24" viewBox="0 0 24 24" fill="none" xmlns="http://www.w3.org/2000/svg">
<g clip-path="url(#clip0_1_393)">
<path d="M19.5 2H18V0.5C18 0.224 17.776 0 17.5 0C17.224 0 17 0.224 17 0.5V2H7V0.5C7 0.224 6.776 0 6.5 0C6.224 0 6 0.224 6 0.5V2H4.5C2.019 2 0 4.019 0 6.5V19.5C0 21.981 2.019 24 4.5 24H5.5C5.776 24 6 23.776 6 23.5C6 23.224 5.776 23 5.5 23H4.5C2.57 23 1 21.43 1 19.5V9H23V13.5C23 13.776 23.224 14 23.5 14C23.776 14 24 13.776 24 13.5V6.5C24 4.019 21.981 2 19.5 2ZM1 8V6.5C1 4.57 2.57 3 4.5 3H19.5C21.43 3 23 4.57 23 6.5V8H1Z" fill="#474A55"/>
<path d="M3.976 21.056C3.93333 21.056 3.89333 21.048 3.856 21.032C3.824 21.0213 3.79467 21 3.768 20.968C3.74667 20.936 3.728 20.9013 3.712 20.864C3.70133 20.8213 3.696 20.7707 3.696 20.712V15.624C3.696 15.5227 3.72267 15.4453 3.776 15.392C3.82933 15.3333 3.90667 15.304 4.008 15.304C4.104 15.304 4.17867 15.3333 4.232 15.392C4.28533 15.4453 4.312 15.5227 4.312 15.624V20.152H4.136L7.608 15.504C7.656 15.4293 7.704 15.3787 7.752 15.352C7.80533 15.32 7.872 15.304 7.952 15.304C8.01067 15.304 8.05867 15.3173 8.096 15.344C8.13333 15.3653 8.16267 15.4 8.184 15.448C8.20533 15.496 8.216 15.5547 8.216 15.624V20.728C8.216 20.8347 8.18933 20.9173 8.136 20.976C8.088 21.0293 8.016 21.056 7.92 21.056C7.81867 21.056 7.74133 21.0293 7.688 20.976C7.63467 20.9173 7.608 20.8347 7.608 20.728V16.208H7.784L4.312 20.856C4.25867 20.9253 4.21067 20.976 4.168 21.008C4.12533 21.04 4.06133 21.056 3.976 21.056ZM12.8099 21.072C12.4579 21.072 12.1485 21 11.8819 20.856C11.6152 20.7067 11.4045 20.496 11.2499 20.224C11.0952 19.9467 11.0019 19.624 10.9699 19.256H10.2019V20.72C10.2019 20.8267 10.1752 20.9093 10.1219 20.968C10.0739 21.0267 9.99388 21.056 9.88188 21.056C9.78054 21.056 9.70054 21.0267 9.64188 20.968C9.58854 20.9093 9.56188 20.8267 9.56188 20.72V17.384C9.56188 17.2773 9.58854 17.1973 9.64188 17.144C9.70054 17.0853 9.78054 17.056 9.88188 17.056C9.98854 17.056 10.0685 17.0853 10.1219 17.144C10.1752 17.1973 10.2019 17.2773 10.2019 17.384V18.728H10.9779C11.0205 18.376 11.1219 18.0747 11.2819 17.824C11.4419 17.568 11.6499 17.3733 11.9059 17.24C12.1672 17.1067 12.4685 17.04 12.8099 17.04C13.1885 17.04 13.5165 17.1227 13.7939 17.288C14.0712 17.4533 14.2845 17.688 14.4339 17.992C14.5885 18.2907 14.6659 18.6453 14.6659 19.056C14.6659 19.3653 14.6232 19.6427 14.5379 19.888C14.4525 20.1333 14.3272 20.3467 14.1619 20.528C13.9965 20.704 13.7992 20.84 13.5699 20.936C13.3459 21.0267 13.0925 21.072 12.8099 21.072ZM12.8099 20.552C13.0552 20.552 13.2659 20.4933 13.4419 20.376C13.6232 20.2587 13.7619 20.088 13.8579 19.864C13.9592 19.64 14.0099 19.3707 14.0099 19.056C14.0099 18.5707 13.9005 18.2 13.6819 17.944C13.4685 17.688 13.1779 17.56 12.8099 17.56C12.5699 17.56 12.3592 17.6187 12.1779 17.736C11.9965 17.848 11.8552 18.016 11.7539 18.24C11.6579 18.4587 11.6099 18.7307 11.6099 19.056C11.6099 19.536 11.7192 19.9067 11.9379 20.168C12.1565 20.424 12.4472 20.552 12.8099 20.552ZM18.6162 21.056C18.5149 21.056 18.4349 21.0267 18.3762 20.968C18.3229 20.9093 18.2962 20.8267 18.2962 20.72V17.632H16.7282V18.128C16.7282 18.544 16.7069 18.912 16.6642 19.232C16.6269 19.5467 16.5655 19.8187 16.4802 20.048C16.3949 20.2773 16.2802 20.4693 16.1362 20.624C15.9975 20.7787 15.8242 20.9093 15.6162 21.016C15.5469 21.048 15.4802 21.056 15.4162 21.04C15.3522 21.0293 15.2989 21.0053 15.2562 20.968C15.2189 20.9253 15.1922 20.8747 15.1762 20.816C15.1655 20.7573 15.1735 20.6987 15.2002 20.64C15.2269 20.5813 15.2749 20.5333 15.3442 20.496C15.4989 20.4107 15.6242 20.304 15.7202 20.176C15.8215 20.048 15.9015 19.888 15.9602 19.696C16.0189 19.504 16.0589 19.28 16.0802 19.024C16.1069 18.7627 16.1202 18.456 16.1202 18.104V17.48C16.1202 17.3573 16.1522 17.2667 16.2162 17.208C16.2802 17.144 16.3709 17.112 16.4882 17.112H18.5762C18.6935 17.112 18.7842 17.144 18.8482 17.208C18.9122 17.2667 18.9442 17.3573 18.9442 17.48V20.72C18.9442 20.8267 18.9149 20.9093 18.8562 20.968C18.8029 21.0267 18.7229 21.056 18.6162 21.056ZM20.5619 21C20.4553 21 20.3726 20.9707 20.3139 20.912C20.2553 20.8533 20.2259 20.7707 20.2259 20.664V17.384C20.2259 17.272 20.2526 17.1893 20.3059 17.136C20.3646 17.0827 20.4473 17.056 20.5539 17.056C20.6553 17.056 20.7326 17.0827 20.7859 17.136C20.8446 17.1893 20.8739 17.272 20.8739 17.384V18.496H22.0499C22.5459 18.496 22.9219 18.6053 23.1779 18.824C23.4339 19.0373 23.5619 19.3413 23.5619 19.736C23.5619 19.9973 23.5006 20.224 23.3779 20.416C23.2606 20.6027 23.0899 20.7467 22.8659 20.848C22.6473 20.9493 22.3753 21 22.0499 21H20.5619ZM20.8739 20.536H21.9859C22.2899 20.536 22.5246 20.472 22.6899 20.344C22.8553 20.2107 22.9379 20.0107 22.9379 19.744C22.9379 19.472 22.8553 19.2747 22.6899 19.152C22.5246 19.024 22.2899 18.96 21.9859 18.96H20.8739V20.536Z" fill="#474A55"/>
</g>
<defs>
<clipPath id="clip0_1_393">
<rect width="24" height="24" fill="white"/>
</clipPath>
</defs>
</svg>

<svg width="24" height="24" fill="none" xmlns="http://www.w3.org/2000/svg"><g clip-path="url(#a)" fill="#474A55"><path d="M19.5 2H18V.5a.5.5 0 0 0-1 0V2H7V.5a.5.5 0 0 0-1 0V2H4.5A4.5 4.5 0 0 0 0 6.5v13A4.5 4.5 0 0 0 4.5 24h1a.5.5 0 0 0 0-1h-1A3.5 3.5 0 0 1 1 19.5V9h22v4.5a.5.5 0 0 0 1 0v-7A4.5 4.5 0 0 0 19.5 2ZM1 8V6.5A3.5 3.5 0 0 1 4.5 3h15A3.5 3.5 0 0 1 23 6.5V8H1Z"/><path d="M3.98 21.06a.3.3 0 0 1-.12-.03.2.2 0 0 1-.1-.06.65.65 0 0 1-.05-.1.63.63 0 0 1-.01-.16v-5.09c0-.1.02-.17.08-.23.05-.06.13-.09.23-.09s.17.03.22.1c.06.05.08.12.08.22v4.53h-.17L7.6 15.5c.05-.07.1-.12.14-.15a.38.38 0 0 1 .2-.05c.06 0 .1.02.15.04l.08.1c.03.06.04.11.04.18v5.1c0 .11-.03.2-.08.26-.05.05-.12.08-.22.08s-.18-.03-.23-.08a.36.36 0 0 1-.08-.25V16.2h.17l-3.47 4.65a.8.8 0 0 1-.14.15c-.04.03-.1.05-.2.05Zm8.83.01c-.35 0-.66-.07-.93-.21a1.63 1.63 0 0 1-.63-.64c-.15-.27-.25-.6-.28-.96h-.77v1.46c0 .1-.02.19-.08.25-.05.06-.13.09-.24.09a.32.32 0 0 1-.24-.1.36.36 0 0 1-.08-.24v-3.34c0-.1.03-.18.08-.24a.32.32 0 0 1 .24-.08c.1 0 .19.03.24.08.06.06.08.14.08.24v1.35h.78c.04-.35.14-.66.3-.9.16-.26.37-.46.63-.59.26-.13.56-.2.9-.2.38 0 .7.08.98.25.28.16.5.4.64.7.16.3.24.66.24 1.07 0 .3-.05.58-.13.83a1.7 1.7 0 0 1-.97 1.05c-.22.09-.48.13-.76.13Zm0-.52c.25 0 .46-.06.63-.17.18-.12.32-.3.42-.52.1-.22.15-.49.15-.8 0-.49-.11-.86-.33-1.12-.21-.25-.5-.38-.87-.38-.24 0-.45.06-.63.18a1.1 1.1 0 0 0-.43.5c-.1.22-.14.5-.14.82 0 .48.1.85.33 1.1.22.26.5.4.87.4Zm5.8.5a.32.32 0 0 1-.23-.08.36.36 0 0 1-.08-.25v-3.09h-1.57v.5c0 .41-.02.78-.07 1.1-.03.32-.1.59-.18.82a1.7 1.7 0 0 1-.86.97.3.3 0 0 1-.2.02.32.32 0 0 1-.16-.07.38.38 0 0 1-.08-.15.3.3 0 0 1 .02-.18c.03-.06.07-.1.14-.14.16-.09.28-.2.38-.32.1-.13.18-.3.24-.48.06-.2.1-.42.12-.68.03-.26.04-.56.04-.92v-.62c0-.12.03-.21.1-.27.06-.07.15-.1.27-.1h2.09c.11 0 .2.03.27.1.06.06.1.15.1.27v3.24c0 .1-.04.19-.1.25-.05.06-.13.09-.23.09Zm1.95-.05a.34.34 0 0 1-.25-.09.34.34 0 0 1-.08-.25v-3.28c0-.1.02-.2.08-.24a.36.36 0 0 1 .24-.08c.1 0 .18.02.24.08.05.05.08.13.08.24v1.12h1.18c.5 0 .87.1 1.13.32.25.22.38.52.38.92 0 .26-.06.48-.18.68-.12.18-.29.33-.51.43-.22.1-.5.15-.82.15h-1.49Zm.31-.46H22c.3 0 .53-.07.7-.2.17-.13.25-.33.25-.6 0-.27-.08-.47-.25-.59-.17-.13-.4-.19-.7-.19h-1.12v1.58Z"/></g><defs><clipPath id="a"><path fill="#fff" d="M0 0h24v24H0z"/></clipPath></defs></svg>
